svg/u270c_1f3fd.svg

<svg viewBox="0 0 128 128" xmlns="http://www.w3.org/2000/svg" xmlns:xlink="http://www.w3.org/1999/xlink">
  <radialGradient id="g" cx="34.026" cy="81.51" gradientTransform="matrix(.9391 .2342 -.3058 1.3142 53.184 -33.578)" gradientUnits="userSpaceOnUse" r="35.58">
    <stop offset=".2457" stop-color="#A47B62"/>
    <stop offset=".6875" stop-color="#BA8D68"/>
    <stop offset=".9941" stop-color="#A47B62"/>
  </radialGradient>
  <path d="m61.29 122.73c-24.23 0-36.01-12.86-36.01-39.31v-22.28c0-0.76 0.05-1.25 0.11-1.55 0.7 0.44 1.95 1.56 2.91 2.42 3.31 2.96 7.84 7.02 13.07 7.02h0.11c0.18-0.01 18.49-1.38 33.41-1.38 15.2 0 17.85 1.41 18.3 1.84 4.41 4.21 6.9 7.03 6.9 15.89 0 18.05-10.19 37.35-38.8 37.35z" fill="url(#g)"/>
  <path d="m26.78 62.67c0.18 0.16 0.35 0.31 0.51 0.46 3.49 3.13 8.26 7.41 14.07 7.41 0.08 0 0.15 0 0.23-0.01 0.18-0.01 18.43-1.38 33.3-1.38 14.1 0 16.93 1.25 17.33 1.48 4.19 4.01 6.37 6.52 6.37 14.74 0 9.67-3 18.42-8.45 24.63-6.54 7.45-16.24 11.23-28.85 11.23-12.76 0-21.7-3.54-27.34-10.82-4.76-6.15-7.17-15.22-7.17-26.98v-20.76m-1.78-4.77c-0.79 0-1.22 0.9-1.22 3.24v22.28c0 22.44 8.29 40.81 37.51 40.81s40.3-19.71 40.3-38.86c0-9.2-2.66-12.47-7.36-16.97-1.8-1.72-9.95-2.25-19.34-2.25-15.16 0-33.53 1.39-33.53 1.39-7.41-0.01-13.78-9.64-16.36-9.64z" fill="#91674D"/>
  <linearGradient id="f" gradientUnits="userSpaceOnUse" x1="75.52" x2="75.52" y1="23.222" y2="90.835">
    <stop offset="0" stop-color="#BA8D68"/>
    <stop offset=".4488" stop-color="#B78A67"/>
    <stop offset=".8086" stop-color="#AD8264"/>
    <stop offset="1" stop-color="#A47B62"/>
  </linearGradient>
  <path d="m87 78.81c-1 0-0.98-0.03-1.41-0.1-3.25-0.5-5.97-2.88-6.84-6.06-0.16-0.59-0.69-1.02-1.29-1.09-0.06-0.01-0.14-0.01-0.21-0.01-0.53 0-1.04 0.28-1.31 0.75-1.17 2.04-3.07 3.45-5.34 3.98-0.62 0.14-1.26 0.22-1.89 0.22-3.89 0-7.23-2.65-8.11-6.45l-12.65-54.56c-1.04-4.48 1.76-8.96 6.23-10 0.62-0.14 1.26-0.22 1.89-0.22 3.89 0 7.23 2.65 8.11 6.45l12.36 49.01c0.17 0.67 0.78 1.27 1.46 1.27h0.07c0.71 0 1.3-0.69 1.42-1.4l7.25-44.91c0.62-4.04 4.16-7.11 8.23-7.11 0.42 0 0.86 0.02 1.28 0.08 4.54 0.7 7.67 4.95 6.97 9.49l-8.11 53.59c-0.64 4.03-4.11 7.07-8.11 7.07z" fill="url(#f)"/>
  <path d="m56.08 6.77c3.19 0 5.92 2.18 6.65 5.29 0 0.02 0.01 0.04 0.01 0.06l12.35 48.84c0.34 1.34 1.54 2.26 2.91 2.26h0.13c1.42-0.06 2.6-1.11 2.83-2.52l7.26-44.87c0.51-3.3 3.41-5.8 6.74-5.8 0.35 0 0.7 0.03 1.05 0.08 3.72 0.57 6.29 4.07 5.71 7.79l-8.24 53.59c-0.51 3.3-3.41 5.8-6.74 5.8-0.35 0-0.7-0.03-1.05-0.08-2.67-0.41-4.85-2.36-5.55-4.97-0.32-1.17-1.31-2.04-2.51-2.19-0.13-0.02-0.26-0.02-0.38-0.02-1.06 0-2.06 0.57-2.6 1.51-0.96 1.67-2.51 2.83-4.37 3.26-0.51 0.12-1.03 0.18-1.55 0.18-3.19 0-5.92-2.18-6.65-5.29l-12.67-54.54c-0.85-3.67 1.44-7.35 5.11-8.2 0.52-0.12 1.04-0.18 1.56-0.18m0-3c-0.74 0-1.48 0.08-2.23 0.26-5.29 1.23-8.58 6.51-7.36 11.8l12.65 54.55c1.05 4.54 5.1 7.61 9.57 7.61 0.74 0 1.48-0.08 2.23-0.26 2.77-0.64 4.99-2.4 6.3-4.69 0.99 3.64 4.03 6.54 7.99 7.15 0.51 0.08 1.01 0.12 1.51 0.12 4.77 0 8.96-3.48 9.71-8.34l8.24-53.59c0.83-5.37-2.86-10.39-8.22-11.21-0.51-0.08-1.01-0.12-1.51-0.12-4.77 0-8.96 3.48-9.71 8.34l-7.25 44.84-12.35-48.84c-1.06-4.55-5.1-7.62-9.57-7.62z" fill="#91674D"/>
  <radialGradient id="e" cx="-174.99" cy="-5.4752" gradientTransform="matrix(.8501 -.0762 .0695 .7756 200.95 49.178)" gradientUnits="userSpaceOnUse" r="13.998">
    <stop offset=".5" stop-color="#BA8D68"/>
    <stop offset="1" stop-color="#A47B62"/>
  </radialGradient>
  <path d="m51.71 79.16c-4.46 0-8.11-3.35-8.51-7.79l-1.47-16.44c-0.2-2.28 0.49-4.5 1.96-6.25s3.53-2.83 5.8-3.04c0.26-0.02 0.52-0.04 0.78-0.04 4.45 0 8.11 3.35 8.51 7.79l1.47 16.44c0.2 2.28-0.49 4.5-1.96 6.25s-3.53 2.83-5.8 3.04c-0.27 0.03-0.53 0.04-0.78 0.04z" fill="url(#e)"/>
  <path d="m50.26 47.1c3.61 0 6.69 2.82 7.02 6.43l1.47 16.44c0.17 1.88-0.4 3.71-1.61 5.15-1.21 1.45-2.91 2.34-4.79 2.5-0.21 0.02-0.43 0.03-0.64 0.03-3.67 0-6.69-2.76-7.02-6.43l-1.47-16.44c-0.17-1.88 0.4-3.71 1.61-5.15 1.21-1.45 2.91-2.34 4.79-2.5 0.21-0.02 0.42-0.03 0.64-0.03m-0.01-3c-0.3 0-0.6 0.01-0.91 0.04-5.53 0.5-9.62 5.38-9.12 10.91l1.48 16.45c0.47 5.23 4.86 9.16 10.01 9.16 0.3 0 0.6-0.01 0.91-0.04 5.53-0.5 9.62-5.38 9.12-10.91l-1.47-16.44c-0.48-5.24-4.87-9.17-10.02-9.17z" fill="#91674D"/>
  <radialGradient id="d" cx="-303.83" cy="-70.304" gradientTransform="matrix(.8458 -.178 .1981 .9411 304.91 75.206)" gradientUnits="userSpaceOnUse" r="12.587">
    <stop offset=".5" stop-color="#BA8D68"/>
    <stop offset="1" stop-color="#A47B62"/>
  </radialGradient>
  <path d="m35.49 81.92c-3.99 0-7.48-2.84-8.3-6.74l-2.31-10.98c-0.47-2.22-0.04-4.49 1.2-6.39s3.14-3.2 5.36-3.67c0.58-0.12 1.17-0.18 1.76-0.18 3.99 0 7.48 2.84 8.3 6.74l2.31 10.98c0.47 2.22 0.04 4.49-1.2 6.39s-3.14 3.2-5.36 3.67c-0.58 0.12-1.18 0.18-1.76 0.18z" fill="url(#d)"/>
  <path d="m33.2 55.46c3.28 0 6.15 2.34 6.83 5.55l2.31 10.98c0.38 1.83 0.03 3.69-0.99 5.26-1.02 1.56-2.59 2.64-4.42 3.02-0.48 0.1-0.97 0.15-1.45 0.15-3.28 0-6.15-2.34-6.83-5.55l-2.31-10.98c-0.79-3.77 1.63-7.49 5.4-8.28 0.49-0.1 0.97-0.15 1.46-0.15m0-3c-0.68 0-1.37 0.07-2.07 0.22-5.4 1.14-8.86 6.43-7.72 11.83l2.31 10.98c0.99 4.71 5.14 7.93 9.77 7.93 0.68 0 1.37-0.07 2.07-0.22 5.4-1.14 8.86-6.43 7.72-11.83l-2.31-10.98c-1-4.7-5.15-7.93-9.77-7.93z" fill="#91674D"/>
  <path d="m87.89 89.9c-3.71-1.09-7.79-1.48-11.37 0.26-3.7 1.8-5.57 5.42-7.06 9.06-0.73 1.79 2.17 2.56 2.89 0.8 1.23-3 2.8-6.05 5.96-7.35 2.85-1.18 5.91-0.72 8.78 0.13 1.86 0.54 2.65-2.35 0.8-2.9z" fill="#91674D"/>
  <defs>
    <path id="c" d="m54.83 70.33c-7.26 0-8.46 7.56-6.72 11.88 1.73 4.32 6.89 7.33 11.49 6.91 16.48-1.51 20.62 0.94 22.77 5.4 2.96 6.16 6.49 6.07 10.12 6.07 6.51 0 5.54-9.56 5.76-18.61 0.26-10.22-18.7-14.02-18.7-14.02s-21.25 2.37-24.72 2.37z"/>
  </defs>
  <clipPath id="b">
    <use xlink:href="#c"/>
  </clipPath>
  <g clip-path="url(#b)">
    <radialGradient id="a" cx="-123.06" cy="231.79" gradientTransform="matrix(.7956 0 0 .8691 160.29 -122.3)" gradientUnits="userSpaceOnUse" r="51.951">
      <stop offset="0" stop-color="#BA8D68"/>
      <stop offset=".4488" stop-color="#B78A67"/>
      <stop offset=".8086" stop-color="#AD8264"/>
      <stop offset="1" stop-color="#A47B62"/>
    </radialGradient>
    <path d="m93.38 103.53c-2.97-0.05-6.94-4.02-9.66-9.66-2.32-4.82-6.69-6.7-15.61-6.7-2.5 0-5.32 0.15-8.65 0.45-0.24 0.02-0.49 0.03-0.73 0.03-3.82 0-7.88-2.64-9.23-6.01-0.84-2.09-0.91-5.35 0.58-7.55 1.02-1.5 2.62-2.27 4.75-2.27 3.34 0 22.08-2.07 24.63-2.36 6.85 1.63 23.91 7.24 24.62 14.6 0.76 7.99-0.25 13.58-3.01 16.62-1.73 1.91-4.15 2.83-7.39 2.83l-0.3 0.02z" fill="url(#a)"/>
    <path d="m79.36 70.99c1.55 0.39 6.59 1.73 11.66 3.89 7.07 3.02 11.29 6.42 11.57 9.33 0.72 7.55-0.16 12.75-2.63 15.47-1.43 1.58-3.49 2.34-6.28 2.34h-0.27c-2.03-0.04-5.7-3.34-8.33-8.81-2.58-5.36-7.49-7.54-16.96-7.54-2.54 0-5.42 0.15-8.79 0.46-0.19 0.02-0.39 0.03-0.6 0.03-3.25 0-6.7-2.23-7.84-5.07-0.67-1.68-0.75-4.4 0.43-6.15 0.73-1.08 1.88-1.61 3.51-1.61 3.34 0 20.73-1.91 24.53-2.34m0.19-3.04s-21.25 2.38-24.72 2.38c-7.26 0-8.46 7.56-6.72 11.88 1.63 4.05 6.26 6.95 10.62 6.95 0.29 0 0.58-0.01 0.87-0.04 3.31-0.3 6.12-0.45 8.51-0.45 9.55 0 12.54 2.28 14.25 5.85 2.96 6.16 7.36 10.45 10.98 10.51h0.32c12.05 0 12.76-12.1 11.9-21.1-0.96-10.17-26.01-15.98-26.01-15.98z" fill="#91674D"/>
  </g>
</svg>

<svg viewBox="0 0 128 128" xmlns="http://www.w3.org/2000/svg">
  <defs>
    <radialGradient id="g" cx="79.689203" cy="47.822341" gradientTransform="matrix(0.9391 0.2342 -0.3058 1.3142 0 0)" gradientUnits="userSpaceOnUse" r="35.58">
      <stop offset=".2457" stop-color="#A47B62"/>
      <stop offset=".6875" stop-color="#BA8D68"/>
      <stop offset=".9941" stop-color="#A47B62"/>
    </radialGradient>
    <linearGradient id="f" gradientUnits="userSpaceOnUse" x1="75.52" x2="75.52" y1="23.222" y2="90.835">
      <stop offset="0" stop-color="#BA8D68"/>
      <stop offset=".4488" stop-color="#B78A67"/>
      <stop offset=".8086" stop-color="#AD8264"/>
      <stop offset="1" stop-color="#A47B62"/>
    </linearGradient>
    <radialGradient id="e" cx="54.367922" cy="80.464812" gradientTransform="matrix(0.8501 -0.0762 0.0695 0.7756 0 0)" gradientUnits="userSpaceOnUse" r="13.998">
      <stop offset=".5" stop-color="#BA8D68"/>
      <stop offset="1" stop-color="#A47B62"/>
    </radialGradient>
    <radialGradient id="d" cx="23.453485" cy="71.511387" gradientTransform="matrix(0.8458 -0.178 0.1981 0.9411 0 0)" gradientUnits="userSpaceOnUse" r="12.587">
      <stop offset=".5" stop-color="#BA8D68"/>
      <stop offset="1" stop-color="#A47B62"/>
    </radialGradient>
    <radialGradient id="a" cx="78.410588" cy="91.069715" gradientTransform="matrix(0.7956 0 0 0.8691 0 0)" gradientUnits="userSpaceOnUse" r="51.951">
      <stop offset="0" stop-color="#BA8D68"/>
      <stop offset=".4488" stop-color="#B78A67"/>
      <stop offset=".8086" stop-color="#AD8264"/>
      <stop offset="1" stop-color="#A47B62"/>
    </radialGradient>
  </defs>
  <path d="M61.29,122.73 C37.06,122.73 25.28,109.87 25.28,83.42 L25.28,61.14 C25.28,60.38 25.33,59.89 25.39,59.59 C26.09,60.03 27.34,61.15 28.3,62.01 C31.61,64.97 36.14,69.03 41.37,69.03 L41.48,69.03 C41.66,69.02 59.97,67.65 74.89,67.65 C90.09,67.65 92.74,69.06 93.19,69.49 C97.6,73.7 100.09,76.52 100.09,85.38 C100.09,103.43 89.9,122.73 61.29,122.73 Z" fill="url(#g)"/>
  <path d="M26.78,62.67 C26.96,62.83 27.13,62.98 27.29,63.13 C30.78,66.26 35.55,70.54 41.36,70.54 C41.44,70.54 41.51,70.54 41.59,70.53 C41.77,70.52 60.02,69.15 74.89,69.15 C88.99,69.15 91.82,70.4 92.22,70.63 C96.41,74.64 98.59,77.15 98.59,85.37 C98.59,95.04 95.59,103.79 90.14,110 C83.6,117.45 73.9,121.23 61.29,121.23 C48.53,121.23 39.59,117.69 33.95,110.41 C29.19,104.26 26.78,95.19 26.78,83.43 L26.78,62.67 M25,57.9 C24.21,57.9 23.78,58.8 23.78,61.14 L23.78,83.42 C23.78,105.86 32.07,124.23 61.29,124.23 C90.51,124.23 101.59,104.52 101.59,85.37 C101.59,76.17 98.93,72.9 94.23,68.4 C92.43,66.68 84.28,66.15 74.89,66.15 C59.73,66.15 41.36,67.54 41.36,67.54 C33.95,67.53 27.58,57.9 25,57.9 Z" fill="#91674D"/>
  <path d="M87,78.81 C86,78.81 86.02,78.78 85.59,78.71 C82.34,78.21 79.62,75.83 78.75,72.65 C78.59,72.06 78.06,71.63 77.46,71.56 C77.4,71.55 77.32,71.55 77.25,71.55 C76.72,71.55 76.21,71.83 75.94,72.3 C74.77,74.34 72.87,75.75 70.6,76.28 C69.98,76.42 69.34,76.5 68.71,76.5 C64.82,76.5 61.48,73.85 60.6,70.05 L47.95,15.49 C46.91,11.01 49.71,6.53 54.18,5.49 C54.8,5.35 55.44,5.27 56.07,5.27 C59.96,5.27 63.3,7.92 64.18,11.72 L76.54,60.73 C76.71,61.4 77.32,62 78,62 L78.07,62 C78.78,62 79.37,61.31 79.49,60.6 L86.74,15.69 C87.36,11.65 90.9,8.58 94.97,8.58 C95.39,8.58 95.83,8.6 96.25,8.66 C100.79,9.36 103.92,13.61 103.22,18.15 L95.11,71.74 C94.47,75.77 91,78.81 87,78.81 Z" fill="url(#f)"/>
  <path d="M56.08,6.77 C59.27,6.77 62,8.95 62.73,12.06 C62.73,12.08 62.74,12.1 62.74,12.12 L75.09,60.96 C75.43,62.3 76.63,63.22 78,63.22 L78.13,63.22 C79.55,63.16 80.73,62.11 80.96,60.7 L88.22,15.83 C88.73,12.53 91.63,10.03 94.96,10.03 C95.31,10.03 95.66,10.06 96.01,10.11 C99.73,10.68 102.3,14.18 101.72,17.9 L93.48,71.49 C92.97,74.79 90.07,77.29 86.74,77.29 C86.39,77.29 86.04,77.26 85.69,77.21 C83.02,76.8 80.84,74.85 80.14,72.24 C79.82,71.07 78.83,70.2 77.63,70.05 C77.5,70.03 77.37,70.03 77.25,70.03 C76.19,70.03 75.19,70.6 74.65,71.54 C73.69,73.21 72.14,74.37 70.28,74.8 C69.77,74.92 69.25,74.98 68.73,74.98 C65.54,74.98 62.81,72.8 62.08,69.69 L49.41,15.15 C48.56,11.48 50.85,7.8 54.52,6.95 C55.04,6.83 55.56,6.77 56.08,6.77 M56.08,3.77 C55.34,3.77 54.6,3.85 53.85,4.03 C48.56,5.26 45.27,10.54 46.49,15.83 L59.14,70.38 C60.19,74.92 64.24,77.99 68.71,77.99 C69.45,77.99 70.19,77.91 70.94,77.73 C73.71,77.09 75.93,75.33 77.24,73.04 C78.23,76.68 81.27,79.58 85.23,80.19 C85.74,80.27 86.24,80.31 86.74,80.31 C91.51,80.31 95.7,76.83 96.45,71.97 L104.69,18.38 C105.52,13.01 101.83,7.99 96.47,7.17 C95.96,7.09 95.46,7.05 94.96,7.05 C90.19,7.05 86,10.53 85.25,15.39 L78,60.23 L65.65,11.39 C64.59,6.84 60.55,3.77 56.08,3.77 Z" fill="#91674D"/>
  <path d="M51.71,79.16 C47.25,79.16 43.6,75.81 43.2,71.37 L41.73,54.93 C41.53,52.65 42.22,50.43 43.69,48.68 C45.16,46.93 47.22,45.85 49.49,45.64 C49.75,45.62 50.01,45.6 50.27,45.6 C54.72,45.6 58.38,48.95 58.78,53.39 L60.25,69.83 C60.45,72.11 59.76,74.33 58.29,76.08 C56.82,77.83 54.76,78.91 52.49,79.12 C52.22,79.15 51.96,79.16 51.71,79.16 Z" fill="url(#e)"/>
  <path d="M50.26,47.1 C53.87,47.1 56.95,49.92 57.28,53.53 L58.75,69.97 C58.92,71.85 58.35,73.68 57.14,75.12 C55.93,76.57 54.23,77.46 52.35,77.62 C52.14,77.64 51.92,77.65 51.71,77.65 C48.04,77.65 45.02,74.89 44.69,71.22 L43.22,54.78 C43.05,52.9 43.62,51.07 44.83,49.63 C46.04,48.18 47.74,47.29 49.62,47.13 C49.83,47.11 50.04,47.1 50.26,47.1 M50.25,44.1 C49.95,44.1 49.65,44.11 49.34,44.14 C43.81,44.64 39.72,49.52 40.22,55.05 L41.7,71.5 C42.17,76.73 46.56,80.66 51.71,80.66 C52.01,80.66 52.31,80.65 52.62,80.62 C58.15,80.12 62.24,75.24 61.74,69.71 L60.27,53.27 C59.79,48.03 55.4,44.1 50.25,44.1 Z" fill="#91674D"/>
  <path d="M35.49,81.92 C31.5,81.92 28.01,79.08 27.19,75.18 L24.88,64.2 C24.41,61.98 24.84,59.71 26.08,57.81 C27.32,55.91 29.22,54.61 31.44,54.14 C32.02,54.02 32.61,53.96 33.2,53.96 C37.19,53.96 40.68,56.8 41.5,60.7 L43.81,71.68 C44.28,73.9 43.85,76.17 42.61,78.07 C41.37,79.97 39.47,81.27 37.25,81.74 C36.67,81.86 36.07,81.92 35.49,81.92 Z" fill="url(#d)"/>
  <path d="M33.2,55.46 C36.48,55.46 39.35,57.8 40.03,61.01 L42.34,71.99 C42.72,73.82 42.37,75.68 41.35,77.25 C40.33,78.81 38.76,79.89 36.93,80.27 C36.45,80.37 35.96,80.42 35.48,80.42 C32.2,80.42 29.33,78.08 28.65,74.87 L26.34,63.89 C25.55,60.12 27.97,56.4 31.74,55.61 C32.23,55.51 32.71,55.46 33.2,55.46 M33.2,52.46 C32.52,52.46 31.83,52.53 31.13,52.68 C25.73,53.82 22.27,59.11 23.41,64.51 L25.72,75.49 C26.71,80.2 30.86,83.42 35.49,83.42 C36.17,83.42 36.86,83.35 37.56,83.2 C42.96,82.06 46.42,76.77 45.28,71.37 L42.97,60.39 C41.97,55.69 37.82,52.46 33.2,52.46 Z" fill="#91674D"/>
  <path d="M87.89,89.9 C84.18,88.81 80.1,88.42 76.52,90.16 C72.82,91.96 70.95,95.58 69.46,99.22 C68.73,101.01 71.63,101.78 72.35,100.02 C73.58,97.02 75.15,93.97 78.31,92.67 C81.16,91.49 84.22,91.95 87.09,92.8 C88.95,93.34 89.74,90.45 87.89,89.9 Z" fill="#91674D"/>
  <path d="M95.061,75.104 C97.013,76.97 98.32,79.245 98.25,81.98 C98.22,83.216 98.212,84.462 98.204,85.692 C98.155,93.464 98.111,100.59 92.49,100.59 C92.438,100.59 92.387,100.59 92.335,100.59 C90.792,100.591 89.268,100.591 87.8,100.103 C86.327,98.466 84.905,96.327 83.72,93.87 C81.4,89.05 77.03,87.17 68.11,87.17 C65.61,87.17 62.79,87.32 59.46,87.62 C59.22,87.64 58.97,87.65 58.73,87.65 C54.91,87.65 50.85,85.01 49.5,81.64 C48.66,79.55 48.59,76.29 50.08,74.09 C51.1,72.59 52.7,71.82 54.83,71.82 C58.17,71.82 76.91,69.75 79.46,69.46 C83.104,70.327 89.637,72.32 95.061,75.104 Z" fill="url(#a)"/>
  <path d="M79.36,70.99 C75.56,71.42 58.17,73.33 54.83,73.33 C53.2,73.33 52.05,73.86 51.32,74.94 C50.14,76.69 50.22,79.41 50.89,81.09 C52.03,83.93 55.48,86.16 58.73,86.16 Q59.045,86.16 59.33,86.13 C62.7,85.82 65.58,85.67 68.12,85.67 C77.59,85.67 82.5,87.85 85.08,93.21 C86.687,96.552 88.682,99.084 90.454,100.557 C87.551,100.402 84.773,99.52 82.37,94.52 C81.792,93.322 81.071,92.268 80.005,91.398 C77.903,89.676 74.454,88.67 68.11,88.67 C66.745,88.67 65.243,88.719 63.589,88.817 C62.346,88.889 61.019,88.99 59.6,89.12 C57.837,89.281 55.992,88.938 54.29,88.211 C51.552,87.04 49.182,84.874 48.11,82.21 C46.37,77.89 47.57,70.33 54.83,70.33 C54.952,70.33 55.096,70.327 55.26,70.321 C59.768,70.166 79.55,67.96 79.55,67.96 C79.55,67.96 79.689,67.988 79.944,68.045 C80.615,68.212 82.097,68.594 84.028,69.182 C88.513,70.644 95.074,73.501 97.398,78.185 C95.66,77.061 93.518,75.947 91.02,74.88 C85.95,72.72 80.91,71.38 79.36,70.99 Z" fill="#91674D"/>
</svg>
